X:603
T: VOM HIMMEL HOCH IHR ENGEL KOMMT
N: E1938
O: Europa, Mitteleuropa, Deutschland
R: geistlich, Fest - Lied, Weihnachten
M: 3/4
L: 1/4
K: F
A | AGF | c2A | FGA | F3 |
c3 | A3 | c3 | A3 |
FGA | cBA | F2E | F2
c | c2B | A2d | cBA | G2
c | GAB | c2F | F2E | F2
B | BAG | ABc | A2G | F2

@@@ Tune index: 5287
